X:1
T:Swing Low, Sweet Chariot
C:Anonymous
S:John C. Campbell Folk School Song Book
Z:ABC by Thornton Rose, 2002
M:4/4
L:1/4
K:D
  "D"F D2 F | "G"D>D ("D"B,<A,) | D/2D/2D/2D/2 F/2F/2 A | "A7"A4 |
w:Swing low, sweet char-i-ot,_ com-in' for to car-ry me home.
  (B/2A/2) "D"F2 A | "G"D>D ("D"B,<A,) | "D"D/2D/2D/2D/2 "A7"F/2F/2 E | "D"D3
w:Swing_ low, sweet char-i-ot,_ com-in' for to car-ry me home.
  "D"F | A D/2A,/2 D D/2D/2 | "G"D/2D/2 D ("A7"B,<A,) |
w:1.~I looked ov-er Jor-dan, an' what did I see,_
  "D"D/2D/2D/2D/2 F/2F/2 A | "A7"A3
w:com-in' for to car-ry me home.
  A | ("D"B/2A/2) F F D | "G"D/2D/2D/2D/2 ("D"B,<A,) |
w:A band_ of an-gels com-in' af-ter me,_
  D/2D/2D/2D/2 "A7"F/2F/2 E | "D"D4 |]
w:com-in' for to car-ry me home.
%
W:2. If you get there before I do,
W:Comin' for to carry me home.
W:Jes' tell my frens that I'm a-comin', too...
W:Comin' for to carry me home.
W:(Chorus)
W:
W:3. I'm sometimes up an' sometimes down,
W:Comin' for to carry me home.
W:But still my soul feels heavenly boun',...
W:Comin' for to carry me home.
W:(Chorus)

